components/Common/Svg/svgs/clock.svg

<svg width="40" height="40" viewBox="0 0 40 40" fill="none" xmlns="http://www.w3.org/2000/svg">
<path fill-rule="evenodd" clip-rule="evenodd" d="M4 20C4 11.1634 11.1634 4 20 4C28.8366 4 36 11.1634 36 20C36 28.8366 28.8366 36 20 36C11.1634 36 4 28.8366 4 20ZM20 2C10.0589 2 2 10.0589 2 20C2 29.9411 10.0589 38 20 38C29.9411 38 38 29.9411 38 20C38 10.0589 29.9411 2 20 2ZM21 10C21 9.44772 20.5523 9 20 9C19.4477 9 19 9.44772 19 10V20C19 20.2652 19.1054 20.5196 19.2929 20.7071L24.2929 25.7071C24.6834 26.0976 25.3166 26.0976 25.7071 25.7071C26.0976 25.3166 26.0976 24.6834 25.7071 24.2929L21 19.5858V10Z" fill="#161616"/>
</svg>

<svg width="40" height="40" viewBox="0 0 40 40" fill="none" xmlns="http://www.w3.org/2000/svg"><path fill-rule="evenodd" clip-rule="evenodd" d="M4 20c0-8.837 7.163-16 16-16s16 7.163 16 16-7.163 16-16 16S4 28.837 4 20ZM20 2C10.059 2 2 10.059 2 20s8.059 18 18 18 18-8.059 18-18S29.941 2 20 2Zm1 8a1 1 0 1 0-2 0v10a1 1 0 0 0 .293.707l5 5a1 1 0 0 0 1.414-1.414L21 19.586V10Z" fill="#161616"/></svg>
